!!!COM: Scriabin, Alexander
!!!OTL@@FR: Prélude en mi majeur
!!!OTL@@EN: Prelude in E Major
!!!OPR@@FR: 4 Préludes
!!!OPR@@EN: 4 Preludes
!!!OPS: 33
!!!ONM: 1
!!!ODT: 1900
!!!AGN: Prelude
**kern	**kern	**dynam
*staff2	*staff1	*staff1/2
*Ipiano	*Ipiano	*
*clefF4	*clefG2	*
*k[f#c#g#d#]	*k[f#c#g#d#]	*
*E:	*E:	*
*M3/4	*M3/4	*
*^	*	*
8C#	8r	8r	p
=1	=1	=1	=1
*	*	*^	*
8BBL	4r	4r	8r	.
8G#J	.	.	8ee	.
4.A	[2e	4.f#	8f#L	.
.	.	.	8dd#J	.
.	.	.	[4cc#	.
8G#	.	8g#	.	.
=2	=2	=2	=2	=2
4.F#	2.e]	8bL	8cc#]	.
.	.	8aJ	4aa	.
.	.	4.cc#	.	<
8G#	.	.	8gg#	.
8BL	.	.	8ff#L	.
8AJ	.	8f#	8cc#J	.
=3	=3	=3	=3	=3
[2.A	2.c#	2f#	4ee	mf
.	.	.	8dd#L	.
.	.	.	8ee	.
.	.	[4f#	8.ff#	.
.	.	.	16cc#Jk	.
=4	=4	=4	=4	=4
2A]	2d#	8f#L]	4.cc#	.
.	.	8e#XJ	.	.
.	.	4.g#	.	.
.	.	.	8b	.
4A	4B	.	8cc#L	>
.	.	8f#	8dd#J	.
!!LO:LB:g=original
=5	=5	=5	=5	=5
2G#	2d#	[2.b	8gg#L	p
.	.	.	8ff#	.
.	.	.	8bb	.
.	.	.	8gg#J	.
4c#	4e	.	12eeL	.
.	.	.	12.ff#	.
.	.	.	24gg#Jk	.
=6	=6	=6	=6	=6
2G#	2d#	2b]	8gg#L	.
.	.	.	8ff#	.
.	.	.	8bb	.
.	.	.	8gg#J	.
4c#	4e	4b	8.eeL	.
.	.	.	16dd#Jk	.
=7	=7	=7	=7	=7
2.F#	2.e	2a#X	8dd#L	<
.	.	.	8ddnJ	[
.	.	.	8gg#	.
.	.	.	4cc#	>
.	.	4a#	.	)
.	.	.	8ccn	]
=8	=8	=8	=8	=8
4.B	4.d#	4.f#	8ccnL	.
.	.	.	8bJ	.
.	.	.	4r	.
8G#	8r	8r	.	.
*	*	*v	*v	*
8F#L	4r	4r	.
8C#J	.	.	.
!!LO:LB:g=original
=9	=9	=9	=9
*	*	*^	*
8BBL	4r	4r	8r	p
8G#J	.	.	8ee	.
4.A	[2e	4.f#	8f#L	.
.	.	.	8dd#J	.
.	.	.	[4cc#	.
8G#	.	8g#	.	.
=10	=10	=10	=10	=10
4.F#	2e]	8bL	8cc#]	.
.	.	8aJ	4aa	.
.	.	4.cc#	.	<
8G#	.	.	8gg#	.
8BL	8.eL	.	8ff#L	.
8AJ	.	8f#	8cc#J	.
.	16d#Jk	.	.	.
=11	=11	=11	=11	=11
[2.A	2.c#	2f#	4ee	mf
.	.	.	8dd#L	.
.	.	.	8ee	.
.	.	[4f#	8.ff#	.
.	.	.	16cc#Jk	.
=12	=12	=12	=12	=12
2A]	2d#	8f#L]	4.cc#	.
.	.	8e#XJ	.	.
.	.	4.g#	.	.
.	.	.	8b	.
4A	4B	.	8cc#L	.
.	.	8f#	8dd#J	.
!!LO:LB:g=original
=13	=13	=13	=13	=13
2G#	2d#	[2.b	8gg#L	f
.	.	.	8ff#	.
.	.	.	8bb	.
.	.	.	8gg#J	.
4c#	4e	.	12eeL	.
.	.	.	12.ff#	.
.	.	.	24gg#Jk	.
=14	=14	=14	=14	=14
2G#	2d#	2b]	8gg#L	.
.	.	.	8ff#	.
.	.	.	8bb	.
.	.	.	8gg#J	.
4c#	4e	4b	8.eeL	.
.	.	.	16dd#Jk	.
=15	=15	=15	=15	=15
[2.e	[2.g#	[2.b	8dd#L	.
.	.	.	8bbJ	.
.	.	.	[2dd#	.
=16	=16	=16	=16	=16
2e_	2g#_	2b_	2dd#]	.
8e]	8g#]	8b]	8cc#	.
*	*	*v	*v	*
*v	*v	*	*
8r	8r	.
!!LO:LB:g=original
=17	=17	=17
2.FF# 2.E 2.A#X 2.e	8r	.
.	8ee	<
.	8gn	[
.	4dd#	.
.	8cc#	> ]
=18	=18	=18
2.BBB 2.FF# 2.E 2.An 2.e	8r	.
.	8cc#	.
.	8c#	.
.	4b	.
.	8a	.
=19	=19	=19
2.BBB 2.BB 2.D# 2.A 2.d#	8r	.
.	8a	.
.	8cn	.
.	4g#	.
.	8f#	.
=20	=20	=20
*^	*^	*
8.CnL	2.EE 2.E	2.G#	8.A#XL	.
[16BBJk	.	.	16BJk	.
2BB/]	.	.	2e	.
*v	*v	*	*	*
*	*v	*v	*
==	==	==
*-	*-	*-
!!!system-decoration: {(*)}
!!!filter: flipper -a
!!!RDF**dynam: > = dim.
!!!ENC: Bryan Jacob Bell
!!!END: November 2021 to April 2022
!!!PED: Konstantin Igumnov and Yakov Milstein
!!!PTL: A.N. Skryabin: Polnoe sobranie sochinenii dlia fortepiano (Muzgiz)
